X: 33721
T: Rat In The Kitchen, The
R: reel
M: 4/4
K: Gmajor
|:~G3A ~B3c|d^cde dBGB|~A3B cBcd|~e3f edcA|
~G3A ~B3c|d^cde dBGB|ABcd efge|1 dBcA BGFA:|2 dBcA BG G2||
|:~~e3f ~g3a|be (3eee bege|d^cde ~~f3g|afdf afdf|
~e3f ~g3a|be (3eee bege|dBGA ~B3c|1 d^cde d^cdf:|2 d^cdB AF(3FFF||
|:~G2 dG BdGB|dGeG dB (3BBB|AE ~A2 cA (3AAA|~e3f edcA|
~G2 dG BdGB|d^cde dBGB|ABcd efge|1 dBcA BGFA:|2 dBcA BG G2||
|:~~e3f ~g3a|be (3eee bege|d^cde ~~f3g|afdf afdf|
~e3f ~g3a|be (3eee bege|dBGA ~B3c|1 d^cde d^cdf:|2 d^cdB AF(3FFF||

